X: 432
T: Biz Çamlıca`nın Üç Gülüyüz
C: Yesârî Âsım Arsoy
O: Turkey
F: http://compmusic.upf.edu/node/140
N: nihavent--sarki--nimsofyan--biz_camlicanin--yesari_asim_arsoy
N: makam= nihavent
N: form= sarki
N: usul= nimsofyan = 2/4
M: 2/4
L: 1/16
K: C _B _e  
Q: 1/4=102
%%MIDI tuningsystem comma53
G^FGA BcBA  | G^FGA BcBA  | G^FGA BcBA  | 
w:  ARANAĞME  |   |   | 
G2d4d2  | G^FGA BcBA  | G^FGA BcBA  | decd BcAB  | 
w:   |  ARANAĞME  |   |   | 
GABc d4  | d4 d4  | B2BA G4  | d4 B2BA  | G4 z4  | \
w:   |  Biz  Çam  |  lı ca *  nın   |  üç  gü lü  |  yüz    | 
B4 B4  | A2B2 d4  | 
w:  Aşk  bah  |  çe si nin   | 
A4 B2BA  | G4 z4  | d4 d4  | B2BA G4  | d4 B2BA  | \
w:  bül bü lü  |  yüz    |  Biz  Çam  |  lı ca *  nın   |  üç  gü lü  | 
G4 z4  | B4 B4  | A2B2 d4  | 
w:  yüz    |  Aşk  bah  |  çe si nin   | 
A4 B2BA  | G4 z4  | d4 g4  | f2fe d4  | ^c2d2 e2ed  | \
w:  bül bü lü  |  yüz    |  Dil ler  |  de  ge *  zer   |  söy *  le ni  | 
d4 z4  | c4 d4  | 
w:  riz    |  Gam sız   | 
A2B2 c4  | A4 B2BA  | G4 z4  | d4 g4  | f2fe d4  | \
w:  ya şa rız   |  eğ le ni  |  riz    |  Dil ler  |  de  ge *  zer   | 
^c2d2 e2ed  | d4 z4  | 
w:  söy *  le ni  |  riz    | 
c4 d4  | A2B2 c4  | A4 B2BA  | G8  | G^FGA BcBA  | \
w:  Gam sız   |  ya şa rız   |  eğ le ni  |  riz    |  ARANAĞME  | 
G^FGA BcBA  | 
w:   | 
G^FGA BcBA  | G2d4d2  | G^FGA BcBA  | G^FGA BcBA  | 
w:   |   |  ARANAĞME  |   | 
decd BcAB  | GABc d4  | d4 d4  | B2BA G4  | \
w:   |   |  Biz  Çam  |  lı ca *  nın   | 
d4 B2BA  | 
w:  üç  gü lü  | 
G4 z4  | B4 B4  | A2B2 d4  | A4 B2BA  | G4 z4  | \
w:  yüz    |  Aşk  bah  |  çe si nin   |  bül bü lü  |  yüz    | 
d4 d4  | B2BA G4  | d4 B2BA  | 
w:  Biz  Çam  |  lı ca *  nın   |  üç  gü lü  | 
G4 z4  | B4 B4  | A2B2 d4  | A4 B2BA  | G4 z4  | \
w:  yüz    |  Aşk  bah  |  çe si nin   |  bül bü lü  |  yüz    | 
d4 g4  | f2fe d4  | ^c2d2 e2ed  | 
w:  Dil ler  |  de  ge *  zer   |  söy *  le ni  | 
d4 z4  | c4 d4  | A2B2 c4  | A4 B2BA  | G4 z4  | \
w:  riz    |  Gam sız   |  ya şa rız   |  eğ le ni  |  riz    | 
d4 g4  | f2fe d4  | ^c2d2 e2ed  | 
w:  Dil ler  |  de  ge *  zer   |  söy *  le ni  | 
d4 z4  | c4 d4  | A2B2 c4  | A4 B2BA  | G8  | |


